X: 1
T: the Braemar Gathering
R: jig
C: George MacLennon
N: arr. Matt Petrie, mods. by T.Traub 2004-2-24
M: 6/8
L: 1/8
K: Amix
   e "A"\
| "A"A>AA A>Bc | A>ce f>ec | "Bm"B>BB    B>cA | "Bm"B>ce "D"f>ga \
| "A"A>AA A>Bc | A>ce f>ec |  "D"f<af "E"e>Bc |  "A"A>AA    A2 :|
|: e "B"\
| "F#m"f2f f>ga | "D"f2f "E"f2c  | "A"e2e     f>ga |    e2e  e2B \
| "F#m"c2c c>BA | "A"A>AA   B>ce | "D"f<af "E"e>Bc | "A"A>AA A2 :|
|: e "C"\
| "A"A>AA c>BA | c<eA c>BA | "Bm"B>BB    B>ce | "D"f>ga "E"f>ec \
| "A"A>AA c>BA | c<eA c2e  |  "D"f<af "E"e>Bc | "A"A>AA     A2 :|
|: g "D"\
| "F#m"a>ff f>ef |  "D"f<af "E"f>ec | "A"f>ee    e>ce | "D"f>ec "E"e>cB \
|   "A"c>BA A>AA | "Bm"B>ce    f2e  | "D"f<af "E"e>Bc | "A"A>AA    A2 :|
